X:1
T:Stars of the Summer Night
T:Stars of the Summer Night - SSAA
T:Longfellow/Woodbury
%%score [ 1 2 3 4 ]
L:1/8
Q:1/4=60
M:4/4
K:Ab
V:1 treble nm="Soprano"
V:2 treble nm="Alto"
V:3 treble nm="Tenor"
V:4 treble nm="Bass"
V:1
 e4 =d2 e2 | A3 B c4 | d4 c2 A2 | c3 B B4 | A4 d2 f2 | e3 d c2 A2 | c2 z c e2 d2 | c8 | f8 | %9
w: 1.Stars of the|sum- mer night,|Far in yon|a- zure deeps,|Hide, hide your|gold- en light, She|sleeps, my la- dy|sleeps,|She|
w: 2.Moon of the|sum- mer night,|Far down yon|west- ern steems,|Sink, sink in|sil- ver light, She|sleeps, my la- dy|sleeps,|She|
w: 3.Dreams of the|sum- mer night,|Tell her, her|lov- er keeps|Watch while, in|slum- ber light, She|sleeps, my la- dy|sleeps,|She|
 e4 z2 A2 | c2 z c e2 d2 | c8 |] %12
w: sleeps, She|sleeps, my la- dy|sleeps.|
w: sleeps, She|sleeps, my la- dy|sleeps.|
w: sleeps, She|sleeps, my la- dy|sleeps.|
V:2
 c4 =B2 c2 | A3 A A4 | A4 A2 A2 | A3 G G4 | A4 A2 d2 | c3 B A2 A2 | A2 z A G2 B2 | A8 | (A4 d4) | %9
w: 1.Stars of the|sum- mer night,|Far in yon|a- zure deeps,|Hide, hide your|gold- en light, She|sleeps, my la- dy|sleeps,|She _|
w: 2.Moon of the|sum- mer night,|Far down yon|west- ern steems,|Sink, sink in|sil- ver light, She|sleeps, my la- dy|sleeps,|She _|
w: 3.Dreams of the|sum- mer night,|Tell her, her|lov- er keeps|Watch while, in|slum- ber light, She|sleeps, my la- dy|sleeps,|She _|
 c4 z2 A2 | A2 z A c2 B2 | A8 |] %12
w: sleeps, She|sleeps, my la- dy|sleeps.|
w: sleeps, She|sleeps, my la- dy|sleeps.|
w: sleeps, She|sleeps, my la- dy|sleeps.|
V:3
 E4 F2 E2 | C3 D E4 | F4 E2 C2 | E3 E E4 | F4 F2 A2 | A3 E E2 F2 | E2 z E E2 E2 | E8 | %8
w: 1.Stars of the|sum- mer night,|Far in yon|a- zure deeps,|Hide, hide your|gold- en light, She|sleeps, my la- dy|sleeps,|
w: 2.Moon of the|sum- mer night,|Far down yon|west- ern steems,|Sink, sink in|sil- ver light, She|sleeps, my la- dy|sleeps,|
w: 3.Dreams of the|sum- mer night,|Tell her, her|lov- er keeps|Watch while, in|slum- ber light, She|sleeps, my la- dy|sleeps,|
 (D2 E2 F2 G2) | A4 z2 F2 | E2 z E E2 E2 | E8 |] %12
w: She _ _ _|sleeps, She|sleeps, my la- dy|sleeps.|
w: She _ _ _|sleeps, She|sleeps, my la- dy|sleeps.|
w: She _ _ _|sleeps, She|sleeps, my la- dy|sleeps.|
V:4
 A,4 A,2 A,2 | A,3 A, A,4 | D4 A,2 A,2 | E3 E E4 | F4 F2 D2 | A,3 A, A,2 F2 | E2 z E E2 G,2 | A,8 | %8
w: 1.Stars of the|sum- mer night,|Far in yon|a- zure deeps,|Hide, hide your|gold- en light, She|sleeps, my la- dy|sleeps,|
w: 2.Moon of the|sum- mer night,|Far down yon|west- ern steems,|Sink, sink in|sil- ver light, She|sleeps, my la- dy|sleeps,|
w: 3.Dreams of the|sum- mer night,|Tell her, her|lov- er keeps|Watch while, in|slum- ber light, She|sleeps, my la- dy|sleeps,|
 D8 | A,4 z2 F2 | E2 z E E2 G,2 | A,8 |] %12
w: She|sleeps, She|sleeps, my la- dy|sleeps.|
w: She|sleeps, She|sleeps, my la- dy|sleeps.|
w: She|sleeps, She|sleeps, my la- dy|sleeps.|

